packages/foundations/assets/icons/functional/images/audio & video/fast_forward_10_32.svg

<svg width="32" height="32" viewBox="0 0 32 32" fill="none" xmlns="http://www.w3.org/2000/svg">
<g clip-path="url(#clip0_184_278)">
<path fill-rule="evenodd" clip-rule="evenodd" d="M4 18.9893C4 12.8793 9.026 7.95926 15.146 8.02326L13.826 6.70526C13.7334 6.61216 13.6601 6.50168 13.6104 6.38018C13.5606 6.25869 13.5353 6.12855 13.536 5.99726C13.536 5.41826 13.986 5.00026 14.534 5.00026C14.6654 4.99963 14.7957 5.02492 14.9174 5.07468C15.039 5.12444 15.1497 5.1977 15.243 5.29026L18.4 8.43926C18.593 8.63226 18.69 8.88926 18.69 9.14726C18.6907 9.27855 18.6654 9.40869 18.6156 9.53018C18.5659 9.65168 18.4926 9.76216 18.4 9.85526L15.243 13.0073C15.1497 13.0998 15.039 13.1731 14.9174 13.2228C14.7957 13.2726 14.6654 13.2979 14.534 13.2973C14.4024 13.2993 14.2717 13.2749 14.1497 13.2254C14.0277 13.176 13.9169 13.1025 13.8238 13.0095C13.7307 12.9164 13.6573 12.8056 13.6078 12.6836C13.5584 12.5616 13.534 12.4309 13.536 12.2993C13.536 12.0423 13.632 11.7843 13.826 11.5913L15.404 10.0153C10.411 9.79026 5.997 13.7783 5.997 18.9573C5.99345 21.1347 6.78379 23.2387 8.22 24.8753C8.36968 25.0557 8.44985 25.2838 8.446 25.5183C8.446 26.0973 8.026 26.5483 7.446 26.5483C7.157 26.5483 6.867 26.4183 6.706 26.1933C4.934 24.2003 4 21.6263 4 18.9893ZM10.99 18.7753C10.99 18.4223 11.216 18.0353 11.538 17.8753L14.47 16.3953C14.601 16.3331 14.744 16.3003 14.889 16.2993C15.339 16.2993 15.919 16.6203 15.919 17.2963V25.0043H18.013C18.561 25.0043 19.013 25.4233 19.013 26.0013C19.013 26.5483 18.561 26.9993 18.013 26.9993H12.021C11.474 26.9993 11.023 26.5493 11.023 26.0013C11.023 25.4233 11.473 25.0043 12.021 25.0043H13.922V18.9363L12.44 19.6763C12.309 19.7384 12.166 19.7712 12.021 19.7723C11.474 19.7723 10.991 19.2903 10.991 18.7753H10.99ZM24.006 15.9993C26.325 15.9993 28 17.4993 28 20.0193V22.9463C28 25.4993 26.26 26.9663 24.005 26.9993C21.75 27.0313 20.043 25.4993 20.043 23.0103V19.9233C20.043 17.4993 21.815 15.9993 24.005 15.9993H24.006ZM24.006 17.9933C22.621 17.9933 22.009 18.6043 22.009 19.9233V23.0103C22.009 24.4583 22.589 25.0373 24.006 25.0373C25.392 25.0373 26.036 24.3613 26.036 22.9463V20.0193C26.036 18.5723 25.456 17.9933 24.006 17.9933Z" fill="#1A1C1F"/>
</g>
<defs>
<clipPath id="clip0_184_278">
<rect width="32" height="32" fill="white"/>
</clipPath>
</defs>
</svg>

<svg xmlns="http://www.w3.org/2000/svg" width="32" height="32" fill="none"><g clip-path="url(#a)"><path fill="#1A1C1F" fill-rule="evenodd" d="M4 18.99C4 12.88 9.026 7.96 15.146 8.022l-1.32-1.318a1 1 0 0 1-.29-.708c0-.579.45-.997.998-.997a1 1 0 0 1 .709.29L18.4 8.44c.193.192.29.45.29.707a1 1 0 0 1-.29.708l-3.157 3.152a1 1 0 0 1-.709.29.984.984 0 0 1-.998-.998c0-.257.096-.515.29-.708l1.578-1.576c-4.993-.225-9.407 3.763-9.407 8.942a8.95 8.95 0 0 0 2.223 5.918c.15.18.23.409.226.643 0 .58-.42 1.03-1 1.03-.289 0-.579-.13-.74-.355C4.934 24.2 4 21.626 4 18.99m6.99-.215c0-.353.226-.74.548-.9l2.932-1.48a1 1 0 0 1 .419-.096c.45 0 1.03.321 1.03.997v7.708h2.094c.548 0 1 .42 1 .997 0 .547-.452.998-1 .998h-5.992c-.547 0-.998-.45-.998-.998 0-.578.45-.997.998-.997h1.901v-6.068l-1.482.74a1 1 0 0 1-.419.096c-.547 0-1.03-.482-1.03-.997zM24.006 16C26.325 16 28 17.5 28 20.02v2.927c0 2.553-1.74 4.02-3.995 4.053-2.255.032-3.962-1.5-3.962-3.989v-3.087c0-2.424 1.772-3.924 3.962-3.924zm0 1.994c-1.385 0-1.997.611-1.997 1.93v3.087c0 1.448.58 2.027 1.997 2.027 1.386 0 2.03-.676 2.03-2.09v-2.928c0-1.447-.58-2.026-2.03-2.026" clip-rule="evenodd"/></g><defs><clipPath id="a"><path fill="#fff" d="M0 0h32v32H0z"/></clipPath></defs></svg>
